X:79
T:Hear Gunner Watts. LIT.079
M:3/8
Q:3/8=90
L:1/8
B:Wm. Litten MS, 1802
Z:Village Music Project 2017 Anne Wride
K:C
c | eff | gag | edc | c/B/ d/B/ G | eff | gag | ecd | c2 :|
K:G
|: d | gab | efg | d/e/d/c/B/A/ | GFG | gab | efg | d/e/d/c/B/A/ | G2 :|

